icons/wheelchair-line.svg

<svg width="24" height="24" fill="none" xmlns="http://www.w3.org/2000/svg"><g clip-path="url(#a)"><path d="M8 10.341v2.194A3.999 3.999 0 1 0 13.465 18h2.193A6.002 6.002 0 0 1 4 16a6.003 6.003 0 0 1 4-5.659ZM12 17a3 3 0 0 1-3-3v-4c0-1.044.534-1.964 1.343-2.501a3 3 0 1 1 3.314.002A2.99 2.99 0 0 1 15 10v4.999l1.434.001a2 2 0 0 1 1.626.836l.089.135 2.708 4.515-1.714 1.028L16.433 17 15 16.999 12 17Zm0-8a1 1 0 0 0-1 1v4a1 1 0 0 0 1 1h.999L13 10a1 1 0 0 0-1-1Zm0-5a1 1 0 1 0 0 2 1 1 0 0 0 0-2Z" /></g><defs><clipPath id="a"><path fill="#fff" d="M0 0h24v24H0z"/></clipPath></defs></svg>

<svg xmlns="http://www.w3.org/2000/svg" width="24" height="24" fill="none"><g clip-path="url(#a)"><g><path fill="#121212" d="M8 10.341V12.535C6.804 13.227 6 14.52 6 16C6 18.21 7.79 20 10 20C11.48 20 12.773 19.196 13.465 18H15.658C14.835 20.33 12.612 22 10 22C6.686 22 4 19.314 4 16C4 13.387 5.67 11.165 8 10.341ZM12 17C10.343 17 9 15.657 9 14V10C9 8.956 9.534 8.036 10.343 7.499C9.533 6.964 9 6.044 9 5C9 3.343 10.343 2 12 2C13.657 2 15 3.343 15 5C15 6.044 14.466 6.964 13.657 7.501C14.467 8.036 15 8.956 15 10V14.999L16.434 15C17.082 15 17.687 15.314 18.06 15.836L18.149 15.971L20.857 20.486L19.143 21.514L16.433 17L15 16.999L12 17ZM12 9C11.448 9 11 9.448 11 10V14C11 14.552 11.448 15 12 15H12.999L13 10C13 9.448 12.552 9 12 9ZM12 4C11.448 4 11 4.448 11 5C11 5.552 11.448 6 12 6C12.552 6 13 5.552 13 5C13 4.448 12.552 4 12 4Z"/></g></g><defs><clipPath id="a"><rect width="24" height="24" fill="white"/></clipPath></defs></svg>
